icon-svg/echo-show-10.svg

<svg xmlns="http://www.w3.org/2000/svg" viewBox="0 0 24 24"><path fill="#44739e" d="M21.986 15.471 19.525 3.385a.7.7 0 0 0-.662-.564l-15.3-.637h-.03a.7.7 0 0 0-.695.821L5.06 16.387a.706.706 0 0 0 .726.589l15.538-.659a.706.706 0 0 0 .662-.846m-1.568.219-13.882.582a.785.785 0 0 1-.81-.65L3.744 3.79a.782.782 0 0 1 .809-.905l13.666.563a.785.785 0 0 1 .739.623l2.2 10.685a.782.782 0 0 1-.74.934m-7.456 5.407H3.656a.36.36 0 0 0 0 .719h9.306a.36.36 0 0 0 0-.719m-7.207-3.77a1.06 1.06 0 0 1-1.041-.883l-.98-5.908A2.61 2.61 0 0 0 2 12.997v5.187a2.61 2.61 0 0 0 2.611 2.613h7.4a2.61 2.61 0 0 0 2.612-2.611v-1.234l-8.823.374Z"/></svg>

<?xml version="1.0" encoding="UTF-8"?>
<svg width="24px" fill="#44739e" height="24px" viewBox="0 0 24 24" version="1.1" xmlns="http://www.w3.org/2000/svg" xmlns:xlink="http://www.w3.org/1999/xlink">
            <path d="M 21.986,15.474 19.525,3.388 A 0.7,0.7 0 0 0 18.863,2.824 L 3.563,2.187 H 3.533 A 0.7,0.7 0 0 0 2.838,3.008 L 5.06,16.39 a 0.706,0.706 0 0 0 0.726,0.589 L 21.324,16.32 a 0.706,0.706 0 0 0 0.662,-0.846 z m -1.568,0.219 -13.882,0.582 a 0.785,0.785 0 0 1 -0.81,-0.65 L 3.744,3.793 A 0.782,0.782 0 0 1 4.553,2.888 l 13.666,0.563 a 0.785,0.785 0 0 1 0.739,0.623 l 2.2,10.685 a 0.782,0.782 0 0 1 -0.74,0.934 z M 12.962,21.1 H 3.656 a 0.36,0.36 0 0 0 0,0.719 h 9.306 a 0.36,0.36 0 0 0 0,-0.719 z M 5.755,17.33 A 1.057,1.057 0 0 1 4.714,16.447 L 3.734,10.539 A 2.614,2.614 0 0 0 2,13 v 5.187 A 2.611,2.611 0 0 0 4.611,20.8 h 7.4 a 2.611,2.611 0 0 0 2.612,-2.611 V 16.955 L 5.8,17.329 Z"/>

</svg>
